**kern	**silbe	**harmony	**phrase	**leadinstrument	**rhyme	**timestamp	**harte
*ICvox	*	*M4/4	*	*	*	*	*M4/4
*VRlead	*	*	*	*	*	*	*
*Hstimme	*	*	*	*	*	*	*
*G:	*	*G:	*	*	*	*	*G:
r;	.	1r;	.	r	.	0	0
=1	=1	=1	=1	=1	=1	=1	=1
*>Letter>A	*>Letter>A	*>Letter>A	*>Letter>A	*>Letter>A	*>Letter>A	*>Letter>A	*>Letter>A
*>Label>Intro	*>Label>Intro	*>Label>Intro	*>Label>Intro	*>Label>Intro	*>Label>Intro	*>Label>Intro	*>Label>Intro
*M4/4	*	*	*	*	*	*	*
*clefG2	*	*	*	*	*	*	*
1r	.	1GM	newline	guitar	.	1.305	G:maj
=2	=2	=2	=2	=2	=2	=2	=2
1r	.	1DM	.	guitar	.	3.915	D:maj
=3	=3	=3	=3	=3	=3	=3	=3
1r	.	1GM	.	guitar	.	6.525	G:maj
=4	=4	=4	=4	=4	=4	=4	=4
1r	.	1DM	.	guitar	.	9.135	D:maj
=5	=5	=5	=5	=5	=5	=5	=5
1r	.	1GM	newline	guitar	.	11.745	G:maj
=6	=6	=6	=6	=6	=6	=6	=6
1r	.	1DM	.	guitar	.	14.385	D:maj
=7	=7	=7	=7	=7	=7	=7	=7
1r	.	2CM	.	guitar	.	17.026	C:maj
.	.	2GM	.	guitar	.	18.346	G:maj/3
=8	=8	=8	=8	=8	=8	=8	=8
1r	.	1B-M	.	guitar	.	19.667	B-:maj6
=9	=9	=9	=9	=9	=9	=9	=9
1r	.	1CM	.	guitar	.	22.307	C:maj
=10	=10	=10	=10	=10	=10	=10	=10
1r	.	1GM	newline	guitar	.	24.948	G:maj
=11	=11	=11	=11	=11	=11	=11	=11
1r	.	1DM	.	guitar	.	27.521	D:maj
=12	=12	=12	=12	=12	=12	=12	=12
1r	.	1GM	.	guitar	.	30.094	G:maj
=13	=13	=13	=13	=13	=13	=13	=13
1r	.	1DM	.	guitar	.	32.667	D:maj
=14	=14	=14	=14	=14	=14	=14	=14
1r	.	1GM	newline	guitar	.	35.239	G:maj
=15	=15	=15	=15	=15	=15	=15	=15
1r	.	1DM	.	guitar	.	37.734	D:maj
=16	=16	=16	=16	=16	=16	=16	=16
1r	.	2CM	.	guitar	.	40.229	C:maj
.	.	2GM	.	guitar	.	41.476	G:maj
=17	=17	=17	=17	=17	=17	=17	=17
1r	.	2DM	.	guitar	.	42.723	D:maj
.	.	2GM	.	guitar	.	43.971	G:maj
=18	=18	=18	=18	=18	=18	=18	=18
1r	.	2DM	.	guitar	.	45.218	D:maj
.	.	2GM	.	guitar	.	46.466	G:maj
=19	=19	=19	=19	=19	=19	=19	=19
2r	.	1DM	.	guitar	.	47.713	D:maj
4r	.	.	.	.	.	.	.
8r	.	.	.	.	.	.	.
8F#	Hey	.	.	.	.	.	.
=20	=20	=20	=20	=20	=20	=20	=20
*>Letter>B	*>Letter>B	*>Letter>B	*>Letter>B	*>Letter>B	*>Letter>B	*>Letter>B	*>Letter>B
*>Label>Preverse	*>Label>Preverse	*>Label>Preverse	*>Label>Preverse	*>Label>Preverse	*>Label>Preverse	*>Label>Preverse	*>Label>Preverse
8G	la-	1GM	newline	voice	.	50.208	G:maj
8B	-dy	.	.	.	A	.	.
4r	.	.	.	.	.	.	.
4r	.	.	.	.	.	.	.
16F#	you	.	.	.	.	.	.
8F#	got	.	.	.	.	.	.
16G	the	.	.	.	.	.	.
=21	=21	=21	=21	=21	=21	=21	=21
16A	love	1DM	.	voice	.	52.893	D:maj
8.A	I	.	.	.	.	.	.
4F#	need	.	.	.	A	.	.
2r	.	.	.	.	.	.	.
=22	=22	=22	=22	=22	=22	=22	=22
4r	.	1GM	.	voice	.	55.578	G:maj
8G	May-	.	.	.	.	.	.
8B	-be	.	.	.	A	.	.
4r	.	.	.	.	.	.	.
8r	.	.	.	.	.	.	.
8B	more	.	.	.	.	.	.
=23	=23	=23	=23	=23	=23	=23	=23
16B	than	1DM	.	voice	.	58.264	D:maj
8B	e-	.	.	.	.	.	.
16B	-nough	.	.	.	B	.	.
8A	_	.	.	.	.	.	.
8r	.	.	.	.	.	.	.
4r	.	.	.	.	.	.	.
4d	Oh	.	.	.	.	.	.
=24	=24	=24	=24	=24	=24	=24	=24
16d	dar-	1GM	newline	voice	.	60.949	G:maj
16B	_	.	.	.	.	.	.
8B	-lin'	.	.	.	.	.	.
16B	dar-	.	.	.	.	.	.
16G	_	.	.	.	.	.	.
16G	-lin'	.	.	.	.	.	.
[16G	dar-	.	.	.	.	.	.
16G]	_	.	.	.	.	.	.
8G	-lin'	.	.	.	.	.	.
16r	.	.	.	.	.	.	.
8r	.	.	.	.	.	.	.
16B	walk	.	.	.	.	.	.
16B	a	.	.	.	.	.	.
=25	=25	=25	=25	=25	=25	=25	=25
16B	while	1DM	.	voice	.	63.457	D:maj
8A	_	.	.	.	.	.	.
16A	with	.	.	.	.	.	.
16A	me	.	.	.	A	.	.
16B	_	.	.	.	.	.	.
8r	.	.	.	.	.	.	.
2r	.	.	.	.	.	.	.
=26	=26	=26	=26	=26	=26	=26	=26
4r	.	2CM	.	voice	.	65.965	C:maj
8r	.	.	.	.	.	.	.
4c	Oh	.	.	.	.	.	.
.	.	2GM	.	voice	.	67.219	G:maj
4B	_	.	.	.	.	.	.
8B	you've	.	.	.	.	.	.
=27	=27	=27	=27	=27	=27	=27	=27
8.B	got	2DM	.	voice	.	68.473	D:maj
8.A	so	.	.	.	.	.	.
16A	much	.	.	.	B	.	.
8.B	_	.	.	.	.	.	.
.	.	2GM	.	voice	.	69.727	G:maj
8r	.	.	.	.	.	.	.
4r	.	.	.	.	.	.	.
=28	=28	=28	=28	=28	=28	=28	=28
4r	.	2DM	.	voice	.	70.981	D:maj
16r	.	.	.	.	.	.	.
8.A	so	.	.	.	.	.	.
16A	much	2GM	.	voice	.	72.235	G:maj
8.B	_	.	.	.	.	.	.
4r	.	.	.	.	.	.	.
=29	=29	=29	=29	=29	=29	=29	=29
4r	.	2DM	.	voice	.	73.489	D:maj
8r	.	.	.	.	.	.	.
8.A	so	.	.	.	.	.	.
.	.	2AM	.	voice	.	74.743	A:maj
16A	much	.	.	.	.	.	.
8.B	_	.	.	.	.	.	.
8.r	.	.	.	.	.	.	.
=30	=30	=30	=30	=30	=30	=30	=30
1r	.	2GM	.	voice	.	75.997	G:maj
.	.	2AM	.	voice	.	77.251	A:maj
=31	=31	=31	=31	=31	=31	=31	=31
1r	.	2GM	.	voice	.	78.505	G:maj
.	.	2AM	.	voice	.	79.759	A:maj
=32	=32	=32	=32	=32	=32	=32	=32
1r	.	2GM	.	voice	.	81.013	G:maj
.	.	2AM	.	voice	.	82.267	A:maj
=33	=33	=33	=33	=33	=33	=33	=33
1r	.	2GM	.	voice	.	83.521	G:maj
.	.	4DM	.	voice	.	84.775	D:maj
.	.	4AM	.	voice	.	85.402	A:maj
=34	=34	=34	=34	=34	=34	=34	=34
*>Letter>C	*>Letter>C	*>Letter>C	*>Letter>C	*>Letter>C	*>Letter>C	*>Letter>C	*>Letter>C
*>Label>Verse	*>Label>Verse	*>Label>Verse	*>Label>Verse	*>Label>Verse	*>Label>Verse	*>Label>Verse	*>Label>Verse
16dd	Ma-	2GM	newline	voice	.	86.029	G:maj
8dd	-ny	.	.	.	.	.	.
8b	have	.	.	.	.	.	.
8b	I	.	.	.	.	.	.
8.a	loved	.	.	.	.	.	.
.	.	2AM	.	voice	.	87.249	A:maj
8r	.	.	.	.	.	.	.
8r	.	.	.	.	.	.	.
16r	.	.	.	.	.	.	.
16d	and	.	.	.	.	.	.
=35	=35	=35	=35	=35	=35	=35	=35
16f#	ma-	2GM	.	voice	.	88.469	G:maj
8a	-ny	.	.	.	.	.	.
8.a	time	.	.	.	.	.	.
8f#	been	.	.	.	.	.	.
16a	bi-	4DM	.	voice	(C	89.689	D:maj
8.b	-tten	.	.	.	c)	.	.
8.r	.	4AM	.	voice	.	90.299	A:maj
16b	And	.	.	.	.	.	.
=36	=36	=36	=36	=36	=36	=36	=36
16dd	ma-	2GM	.	voice	.	90.909	G:maj
8dd	-ny	.	.	.	.	.	.
8.b	times	.	.	.	.	.	.
8b	I've	.	.	.	.	.	.
16a	gazed	2AM	.	voice	.	92.129	A:maj
16b	_	.	.	.	.	.	.
[4a	_	.	.	.	.	.	.
16a]	_	.	.	.	.	.	.
16d	a-	.	.	.	.	.	.
=37	=37	=37	=37	=37	=37	=37	=37
8.f#	-long	2GM	.	voice	.	93.349	G:maj
16a	the	.	.	.	.	.	.
8a	o-	.	.	.	.	.	.
8b	-pen	.	.	.	.	.	.
16b	road	2AM	.	voice	D	94.569	A:maj
[8.a	_	.	.	.	.	.	.
4a]	_	.	.	.	.	.	.
=38	=38	=38	=38	=38	=38	=38	=38
1r	.	2GM	newline	voice	.	95.789	G:maj
.	.	2AM	.	voice	.	96.963	A:maj
=39	=39	=39	=39	=39	=39	=39	=39
1r	.	2GM	.	voice	.	98.137	G:maj
.	.	2AM	.	voice	.	99.311	A:maj
=40	=40	=40	=40	=40	=40	=40	=40
1r	.	2GM	.	voice	.	100.485	G:maj
.	.	2AM	.	voice	.	101.66	A:maj
=41	=41	=41	=41	=41	=41	=41	=41
1r	.	2GM	.	voice	.	102.834	G:maj
.	.	4DM	.	voice	.	104.008	D:maj
.	.	4AM	.	voice	.	104.595	A:maj
=42	=42	=42	=42	=42	=42	=42	=42
16dd	Ma-	2GM	newline	voice	.	105.182	G:maj
8dd	-ny	.	.	.	.	.	.
8b	times	.	.	.	.	.	.
8b	I've	.	.	.	.	.	.
8b	lied	.	.	.	.	.	.
.	.	2AM	.	voice	.	106.387	A:maj
8.a	_	.	.	.	.	.	.
8r	.	.	.	.	.	.	.
16r	.	.	.	.	.	.	.
16d	and	.	.	.	.	.	.
=43	=43	=43	=43	=43	=43	=43	=43
16f#	ma-	2GM	.	voice	.	107.592	G:maj
8a	-ny	.	.	.	.	.	.
8a	times	.	.	.	.	.	.
8f#	I've	.	.	.	.	.	.
8a	list-	.	.	.	(C	.	.
.	.	4DM	.	voice	.	108.797	D:maj
8b	-ened	.	.	.	c)	.	.
16r	.	.	.	.	.	.	.
4r	.	4AM	.	voice	.	109.399	A:maj
=44	=44	=44	=44	=44	=44	=44	=44
16dd	Ma-	2GM	.	voice	.	110.002	G:maj
8dd	-ny	.	.	.	.	.	.
8.b	times	.	.	.	.	.	.
8b	I've	.	.	.	.	.	.
16a	won-	2AM	.	voice	.	111.207	A:maj
16b	_	.	.	.	.	.	.
4a	-dered	.	.	.	.	.	.
8d	how	.	.	.	.	.	.
=45	=45	=45	=45	=45	=45	=45	=45
8.f#	much	2GM	.	voice	.	112.412	G:maj
16a	there	.	.	.	.	.	.
6a	is	.	.	.	.	.	.
6b	to	.	.	.	.	.	.
.	.	2AM	.	voice	.	113.617	A:maj
6b	know	.	.	.	D	.	.
[4a	_	.	.	.	.	.	.
=46	=46	=46	=46	=46	=46	=46	=46
4a]	_	2GM	newline	voice	.	114.821	G:maj
4r	.	.	.	.	.	.	.
2r	.	2AM	.	voice	.	115.993	A:maj
=47	=47	=47	=47	=47	=47	=47	=47
1r	.	2GM	.	voice	.	117.164	G:maj
.	.	2AM	.	voice	.	118.335	A:maj
=48	=48	=48	=48	=48	=48	=48	=48
1r	.	2GM	.	voice	.	119.507	G:maj
.	.	2AM	.	voice	.	120.678	A:maj
=49	=49	=49	=49	=49	=49	=49	=49
1r	.	2GM	.	voice	.	121.849	G:maj
.	.	4DM	.	voice	.	123.021	D:maj
.	.	4AM	.	voice	.	123.606	A:maj
=50	=50	=50	=50	=50	=50	=50	=50
*>Letter>D	*>Letter>D	*>Letter>D	*>Letter>D	*>Letter>D	*>Letter>D	*>Letter>D	*>Letter>D
*>Label>Verse	*>Label>Verse	*>Label>Verse	*>Label>Verse	*>Label>Verse	*>Label>Verse	*>Label>Verse	*>Label>Verse
16dd	Ma-	2GM	newline	voice	.	124.192	G:maj
8dd	-ny	.	.	.	.	.	.
8.b	dreams	.	.	.	.	.	.
8b	come	.	.	.	.	.	.
4a	true	2AM	.	voice	.	125.377	A:maj
8r	.	.	.	.	.	.	.
16r	.	.	.	.	.	.	.
16d	and	.	.	.	.	.	.
=51	=51	=51	=51	=51	=51	=51	=51
8f#	some	2GM	.	voice	.	126.563	G:maj
8a	have	.	.	.	.	.	.
8a	sil-	.	.	.	.	.	.
16f#	-ver	.	.	.	.	.	.
8a	li-	.	.	.	.	.	.
.	.	4DM	.	voice	.	127.748	D:maj
8.b	-nings	.	.	.	.	.	.
4r	.	4AM	.	voice	.	128.341	A:maj
=52	=52	=52	=52	=52	=52	=52	=52
8dd	I	2GM	.	voice	.	128.934	G:maj
8dd	live	.	.	.	.	.	.
8b	for	.	.	.	.	.	.
8b	my	.	.	.	.	.	.
4a	dream	2AM	.	voice	.	130.119	A:maj
8r	.	.	.	.	.	.	.
16d	and	.	.	.	.	.	.
16d	a	.	.	.	.	.	.
=53	=53	=53	=53	=53	=53	=53	=53
8f#	po-	2GM	.	voice	.	131.305	G:maj
8a	-cket	.	.	.	.	.	.
8a	full	.	.	.	.	.	.
8b	of	.	.	.	.	.	.
8r	.	2AM	.	voice	.	132.49	A:maj
16b	gold	.	.	.	D	.	.
[8.a	_	.	.	.	.	.	.
8a]	_	.	.	.	.	.	.
=54	=54	=54	=54	=54	=54	=54	=54
*>Label>>Interlude	*>Label>>Interlude	*>Label>>Interlude	*>Label>>Interlude	*>Label>>Interlude	*>Label>>Interlude	*>Label>>Interlude	*>Label>>Interlude
1r	.	2GM	newline	voice	.	133.676	G:maj
.	.	2DM	.	voice	.	134.844	D:maj
=55	=55	=55	=55	=55	=55	=55	=55
1r	.	4AM	.	voice	.	136.013	A:maj
.	.	2.EM	.	voice	.	136.597	E:maj
=56	=56	=56	=56	=56	=56	=56	=56
1r	.	2GM	.	voice	.	138.351	G:maj
.	.	2DM	.	voice	.	139.519	D:maj
=57	=57	=57	=57	=57	=57	=57	=57
1r	.	4AM	.	voice	.	140.688	A:maj
.	.	2.EM	.	voice	.	141.273	E:maj
=58	=58	=58	=58	=58	=58	=58	=58
1r	.	2GM	.	voice	.	143.026	G:maj
.	.	2DM	.	voice	.	144.195	D:maj
=59	=59	=59	=59	=59	=59	=59	=59
1r	.	2AM	.	voice	.	145.363	A:maj
.	.	2EM	.	voice	.	146.532	E:maj
=60	=60	=60	=60	=60	=60	=60	=60
*>Letter>E	*>Letter>E	*>Letter>E	*>Letter>E	*>Letter>E	*>Letter>E	*>Letter>E	*>Letter>E
*>Label>Solo	*>Label>Solo	*>Label>Solo	*>Label>Solo	*>Label>Solo	*>Label>Solo	*>Label>Solo	*>Label>Solo
*f#:	*	*f#:	*	*	*	*	*f#:
1r	.	1F#m	newline	guitar	.	147.701	F#:5
=61	=61	=61	=61	=61	=61	=61	=61
1r	.	1F#m	.	guitar	.	.	F#:5
=62	=62	=62	=62	=62	=62	=62	=62
1r	.	1F#m	.	guitar	.	.	F#:5
=63	=63	=63	=63	=63	=63	=63	=63
1r	.	1F#m	.	guitar	.	.	F#:5
=64	=64	=64	=64	=64	=64	=64	=64
1r	.	1F#m	newline	guitar	.	.	F#:5
=65	=65	=65	=65	=65	=65	=65	=65
1r	.	1F#m	.	guitar	.	.	F#:5
=66	=66	=66	=66	=66	=66	=66	=66
1r	.	1F#m	.	guitar	.	.	F#:5
=67	=67	=67	=67	=67	=67	=67	=67
1r	.	1F#m	.	guitar	.	.	F#:5
=68	=68	=68	=68	=68	=68	=68	=68
1r	.	1F#m	newline	guitar	.	.	F#:5
=69	=69	=69	=69	=69	=69	=69	=69
1r	.	1F#m	.	guitar	.	.	F#:5
=70	=70	=70	=70	=70	=70	=70	=70
1r	.	1F#m	.	guitar	.	.	F#:5
=71	=71	=71	=71	=71	=71	=71	=71
*M3/4	*	*M3/4	*	*	*	*	*M3/4
2.r	.	2.F#m	.	guitar	.	.	F#:5
=72	=72	=72	=72	=72	=72	=72	=72
2.r	.	2.F#Mm	newline	guitar	.	.	F#:7
=73	=73	=73	=73	=73	=73	=73	=73
2.r	.	2.F#Mm	.	guitar	.	.	F#:7
=74	=74	=74	=74	=74	=74	=74	=74
2.r	.	2.F#Mm	.	guitar	.	.	F#:7
=75	=75	=75	=75	=75	=75	=75	=75
*M2/4	*	*M2/4	*	*	*	*	*M2/4
2r	.	2F#M	.	guitar	.	.	F#:maj
=76	=76	=76	=76	=76	=76	=76	=76
*M4/4	*	*M4/4	*	*	*	*	*M4/4
*G:	*	*G:	*	*	*	*	*G:
1r	.	2GM	newline	guitar	.	.	G:maj
.	.	2AM	.	guitar	.	.	A:maj
=77	=77	=77	=77	=77	=77	=77	=77
1r	.	2GM	.	guitar	.	.	G:maj
.	.	2AM	.	guitar	.	.	A:maj
=78	=78	=78	=78	=78	=78	=78	=78
1r	.	2GM	.	guitar	.	.	G:maj
.	.	2AM	.	guitar	.	.	A:maj
=79	=79	=79	=79	=79	=79	=79	=79
1r	.	2GM	.	guitar	.	.	G:maj
.	.	4DM	.	guitar	.	.	D:maj
.	.	4AM	.	guitar	.	.	A:maj
=80	=80	=80	=80	=80	=80	=80	=80
*>Letter>G	*>Letter>G	*>Letter>G	*>Letter>G	*>Letter>G	*>Letter>G	*>Letter>G	*>Letter>G
*>Label>Verse	*>Label>Verse	*>Label>Verse	*>Label>Verse	*>Label>Verse	*>Label>Verse	*>Label>Verse	*>Label>Verse
16dd	Me-	2GM	newline	voice	.	.	G:maj
8dd	-llow	.	.	.	.	.	.
8b	is	.	.	.	.	.	.
8b	the	.	.	.	.	.	.
8.a	man	.	.	.	.	.	.
.	.	2AM	.	voice	.	.	A:maj
8r	.	.	.	.	.	.	.
8r	.	.	.	.	.	.	.
8d	who	.	.	.	.	.	.
=81	=81	=81	=81	=81	=81	=81	=81
8f#	knows	2GM	.	voice	.	.	G:maj
8a	what	.	.	.	.	.	.
8a	he's	.	.	.	.	.	.
8f#	been	.	.	.	.	.	.
16a	mis-	4DM	.	voice	(C	.	D:maj
8.b	-sing	.	.	.	c)	.	.
4r	.	4AM	.	voice	.	.	A:maj
=82	=82	=82	=82	=82	=82	=82	=82
16dd	Ma-	2GM	newline	voice	.	.	G:maj
8dd	-ny	.	.	.	.	.	.
8b	ma-	.	.	.	.	.	.
8b	-ny	.	.	.	.	.	.
16a	men	.	.	.	.	.	.
16b	_	2AM	.	voice	.	.	A:maj
8a	_	.	.	.	.	.	.
16r	.	.	.	.	.	.	.
8r	.	.	.	.	.	.	.
8d	can't	.	.	.	.	.	.
=83	=83	=83	=83	=83	=83	=83	=83
8f#	see	2GM	.	voice	.	.	G:maj
16a	the	.	.	.	.	.	.
8a	o-	.	.	.	.	.	.
8.b	-pen	.	.	.	.	.	.
16b	road	2AM	.	voice	D	.	D:maj/5
8.a	_	.	.	.	.	.	.
4r	.	.	.	.	.	.	.
=84	=84	=84	=84	=84	=84	=84	=84
1r	.	2GM	newline	voice	.	.	G:maj/5
.	.	2AM	.	voice	.	.	A:maj
=85	=85	=85	=85	=85	=85	=85	=85
1r	.	2GM	.	voice	.	.	G:maj/5
.	.	2AM	.	voice	.	.	A:maj
=86	=86	=86	=86	=86	=86	=86	=86
1r	.	2GM	.	voice	.	.	G:maj/5
.	.	2AM	.	voice	.	.	A:maj
=87	=87	=87	=87	=87	=87	=87	=87
1r	.	2GM	.	voice	.	.	G:maj/5
.	.	4DM	.	voice	.	.	D:maj
.	.	4AM	.	voice	.	.	A:maj
=88	=88	=88	=88	=88	=88	=88	=88
16dd	Ma-	2GM	newline	voice	.	.	G:maj
8dd	-ny	.	.	.	.	.	.
8b	is	.	.	.	.	.	.
8b	a	.	.	.	.	.	.
8.a	word	.	.	.	.	.	.
.	.	2AM	.	voice	.	.	A:maj
8r	.	.	.	.	.	.	.
8r	.	.	.	.	.	.	.
16d	that	.	.	.	.	.	.
[16f#	on-	.	.	.	.	.	.
=89	=89	=89	=89	=89	=89	=89	=89
16f#]	_	2GM	.	voice	.	.	G:maj
8.a	-ly	.	.	.	.	.	.
8a	leaves	.	.	.	.	.	.
16f#	you	.	.	.	.	.	.
8a	guess-	.	.	.	.	.	.
.	.	4DM	.	voice	.	.	D:maj
8.b	-in'	.	.	.	.	.	.
4r	.	4AM	.	voice	.	.	A:maj
=90	=90	=90	=90	=90	=90	=90	=90
8dd	Guess-	2GM	.	voice	.	.	G:maj
16dd	-in'	.	.	.	.	.	.
8b	'bout	.	.	.	.	.	.
16b	a	.	.	.	.	.	.
4.a	thing	.	.	.	.	.	.
.	.	2AM	.	voice	.	.	A:maj
8r	.	.	.	.	.	.	.
8d	you	.	.	.	.	.	.
=91	=91	=91	=91	=91	=91	=91	=91
8f#	rea-	1GM	.	voice	.	.	G:maj
8a	-lly	.	.	.	.	.	.
8a	ought-	.	.	.	.	.	.
8b	-ta	.	.	.	.	.	.
8b	know	.	.	.	D	.	.
4.a	_	.	.	.	.	.	.
=92	=92	=92	=92	=92	=92	=92	=92
8b	oh	1DM	newline	voice	.	.	D:maj
4a	_	.	.	.	.	.	.
8b	oh	.	.	.	.	.	.
[4a	_	.	.	.	.	.	.
16a]	_	.	.	.	.	.	.
8b	oh	.	.	.	.	.	.
[16a	_	.	.	.	.	.	.
=93	=93	=93	=93	=93	=93	=93	=93
4a_	_	1GM	.	voice	.	.	G:maj
16a]	_	.	.	.	.	.	.
8b	oh	.	.	.	.	.	.
4a	_	.	.	.	.	.	.
16r	.	.	.	.	.	.	.
8f#	Rea-	.	.	.	.	.	.
8a	-lly	.	.	.	.	.	.
=94	=94	=94	=94	=94	=94	=94	=94
8a	ought-	1DM	.	voice	.	.	D:maj
8b	-ta	.	.	.	.	.	.
8b	know	.	.	.	.	.	.
4.a	_	.	.	.	.	.	.
4r	.	.	.	.	.	.	.
=95	=95	=95	=95	=95	=95	=95	=95
2r	.	1GM	.	voice	.	.	G:maj
8r	.	.	.	.	.	.	.
8d	I	.	.	.	.	.	.
16f#	rea-	.	.	.	.	.	.
8.a	-lly	.	.	.	.	.	.
=96	=96	=96	=96	=96	=96	=96	=96
16a	ought-	1DM	newline	voice	.	.	D:maj
8.b	-ta	.	.	.	.	.	.
16b	know	.	.	.	.	.	.
16dd	_	.	.	.	.	.	.
[4.a	_	.	.	.	.	.	.
4a]	_	.	.	.	.	.	.
=97	=97	=97	=97	=97	=97	=97	=97
2r	.	1GM	.	voice	.	.	G:maj
[2b	Ah	.	.	.	.	.	.
=98	=98	=98	=98	=98	=98	=98	=98
2b_	_	1DM	.	voice	.	.	D:maj
8b]	_	.	.	.	.	.	.
8dd	ooh	.	.	.	.	.	.
[4a	oh	.	.	.	.	.	.
=99	=99	=99	=99	=99	=99	=99	=99
8.a]	_	1GM	.	voice	.	.	G:maj
16f#	You	.	.	.	.	.	.
8f#	know	.	.	.	.	.	.
8e	I	.	.	.	.	.	.
8d	should	.	.	.	.	.	.
16d	You	.	.	.	.	.	.
8f#	know	.	.	.	.	.	.
8e	I	.	.	.	.	.	.
[16d	should	.	.	.	.	.	.
=100	=100	=100	=100	=100	=100	=100	=100
8d]	_	1DM	.	voice	.	.	D:maj
16d	You	.	.	.	.	.	.
8f#	know	.	.	.	.	.	.
8a	I	.	.	.	.	.	.
8a	should	.	.	.	.	.	.
8.f#	know	.	.	.	.	.	.
4r	.	.	.	.	.	.	.
=101	=101	=101	=101	=101	=101	=101	=101
1r	.	1GM	.	voice	.	.	G:maj
=102	=102	=102	=102	=102	=102	=102	=102
1r	.	1DM	.	voice	.	.	D:maj
=103	=103	=103	=103	=103	=103	=103	=103
*>Letter>A2	*>Letter>A2	*>Letter>A2	*>Letter>A2	*>Letter>A2	*>Letter>A2	*>Letter>A2	*>Letter>A2
*>Label>Outro	*>Label>Outro	*>Label>Outro	*>Label>Outro	*>Label>Outro	*>Label>Outro	*>Label>Outro	*>Label>Outro
1r	.	1GM	newline	guitar	.	.	G:maj
=104	=104	=104	=104	=104	=104	=104	=104
1r	.	1DM	.	guitar	.	.	D:maj
=105	=105	=105	=105	=105	=105	=105	=105
1r	.	1GM	.	guitar	.	.	G:maj
=106	=106	=106	=106	=106	=106	=106	=106
1r	.	1DM	.	guitar	.	.	D:maj
=107	=107	=107	=107	=107	=107	=107	=107
1r	.	1GM	newline	guitar	.	.	G:maj
=108	=108	=108	=108	=108	=108	=108	=108
1r	.	1DM	.	guitar	.	.	D:maj
=109	=109	=109	=109	=109	=109	=109	=109
1r	.	2CM	.	guitar	.	.	C:maj
.	.	2GM	.	guitar	.	.	G:maj/3
=110	=110	=110	=110	=110	=110	=110	=110
1r	.	1B-M	.	guitar	.	.	B-:maj6
=111	=111	=111	=111	=111	=111	=111	=111
1r	.	1CM	.	guitar	.	.	C:maj
=112	=112	=112	=112	=112	=112	=112	=112
1r	.	1GM	.	guitar	.	.	G:maj
r;	.	1r;	.	r	.	.	N.C.
r;	.	1r;	.	r	.	.	N.C.
*-	*-	*-	*-	*-	*-	*-	*-
!!!BillboardChartDate: 1973/06/30, 1973/08/11
!!!BillboardPeak: 51, 51
!!!BillboardWeeksOnChart: 8, 8
!!!COC: Led Zeppelin
!!!EMD: The solo in mcgill transcription was WAY too long. Interpetations of meter were wrong. 
!!!EMD: Timestamps from solo are off so I removed them. The rest are suspect as well.
!!!ENC: Nathaniel Condit-Schultz
!!!EST: Awating manual error checking and editing.
!!!OTL: Over The Hills And Far Away
!!!RDF**chordsym: original McGill chord annotation + (implied pitch class set, with bass pitch in first position)
!!!RDF**harmony: **recip + pitch class of root + harmonic quality
!!!RDF**leadinstrument: original McGill primary instrumentation annotation
!!!RDF**phrase: newline = linebreak in original McGill transcription
!!!RDF**timestamp: McGill audio timestamp in seconds
!!!RDT: 2017/01/12/
!!!SampleActualRank: 81, 64
!!!SampleID#: 53, 1025
!!!SampleTargetRank: 80, 64
